!!!COM:	Tinctoris, Johannes
!!!CDT:	~1435///-1511//
!!!OPR:	Missa Sine nomine i
!!!ONM:	2
!!!OTL:	Gloria
!!!AGN:	Mass; Gloria
!!!SCT:	Tin1002b
!!!SCA:	Tin1002b
!!!voices:	3
!!!voices-OPR:	3
**kern	**kern	**kern
*staff3	*staff2	*staff1
*Ivox	*Ivox	*Ivox
*I"Bassus	*I"Tenor	*I"Altus
*I'B	*I'T	*I'A
*>[A,B,C,D,E,F,G]	*>[A,B,C,D,E,F,G]	*>[A,B,C,D,E,F,G]
*>A	*>A	*>A
*clefF4	*clefGv2	*clefGv2
*k[b-e-]	*k[b-e-]	*k[b-e-]
*M3/1	*M3/1	*M3/1
*met(O)	*met(O)	*met(O)
!!section: Et in terra pax
!!!OMD: Et in terra pax
=1-	=1-	=1-
2.C/	1.C	0c
4BB-/	.	.
4AA/	.	.
4FF/	.	.
2C/	2E-/	.
1GG	1D	1B-
=2	=2	=2
2.CC/	2C/	1.c
.	1E-	.
2CC/	.	.
4EE-/	.	.
2DD/	2F/	2d\
[1CC	[1G	2.e-\
.	.	8d\L
.	.	8c\J
=3	=3	=3
2CC/]	0G]	2e-\
2.GG/	.	2.d\
4AA/	.	4c\
4BB-/	.	2B-\
4C/	.	.
1D	1F#i	1A
=4	=4	=4
1GG	1G	2r
.	.	2.G/
2r	2C/	.
.	.	4A/
2GG/	2D/	2B-\
2C/	2E-/	2c\
2BB-/	2F/	[2d\
=5	=5	=5
1.GG	2.G/	4d\]
.	.	4c\
.	.	4B-\
.	4F/	4A/
.	4E-/	2B-\
.	4D/	.
2CC/	2E-/	2c\
4DD/	1F	2r
4EE-/	.	.
4.FF/	.	[2C/
8GG/	.	.
=6	=6	=6
4AA/	0.r	4C/]
4BB-/	.	4D/
2C/	.	2E-/
4r	.	2F/
4D\	.	.
4C/	.	2.G/
2E-\	.	.
4D\	.	4F/
4C/	.	4E-/
8BB-/L	.	4D/
8AA/J	.	.
=7	=7	=7
4GG/	0.r	2E-/
8FF/L	.	.
8EE-/J	.	.
4.DD/	.	2.F/
8EE-/	.	.
4FF/	.	.
4GG/	.	8E-/L
.	.	8D/J
4CC/	.	2E-/
2C/	.	.
.	.	1D
4BBn/	.	.
4BBni/	.	.
8AA/L	.	.
8BBni/J	.	.
=8	=8	=8
1C	1C	0C
2r	1E-	.
2AA-/	.	.
2.BB-/	[1D	1r
[4GG/	.	.
=9	=9	=9
4GG/]	1D]	1r
4FF/	.	.
2GG/	.	.
2r	1C	1c
1.CC	.	.
.	2r	1e-
.	2C/	.
=10	=10	=10
2.GG/	2BB-/	0d
.	2.GG/	.
2BB-/	.	.
4AA/	4AA/	.
4GG/	4BB-/	.
4BB-/	4GG/	.
2FF/	2AA/	1c
[2C/	2FF/	.
=11	=11	=11
4C/]	2.C/	2r
4D\	.	.
2E-\	.	2.G/
.	4D/	.
2C/	2.E-/	.
.	.	4A/
2GG/	.	2B-\
.	4F/	.
4r	[1G	2E-/
4CC/	.	.
2GG/	.	[2B-\
=12	=12	=12
2EE-/	2G/]	2B-\]
2CC/	2E-/	2c\
1EE-	1G	2B-\
.	.	1e-
1BB-	1F	.
.	.	2d\
=13	=13	=13
2EE-/	2.E-/	0e-
1.CC	.	.
.	4F/	.
.	2G/	.
.	2.E-/	.
1CC	.	2r
.	4D/	.
.	2C/	2e-\
=14	=14	=14
2.GG/	4BB-/	2d\
.	2D/	.
.	.	4B-\
4CC/	4C/	2c\
1C	1E-	.
.	.	4B-\
.	.	2G/
3FF/V	2F/	2F/
3C/	.	.
.	2D/	4r
3D\Z	.	.
.	.	4B-\
=15	=15	=15
2C/	2E-/	2c\
2.BB-/	2F/	2.d\
.	1BB-	.
4AA/	.	4c\
2GG/	.	1B-
1FF	1C	.
.	.	2A/
=16	=16	=16
2.GG/	1BB-	0.B-
2EE-/	.	.
.	2r	.
4DD/	.	.
4EE-/	2.GG/	.
4FF/	.	.
2.GG/	.	.
.	4AA/	.
.	4BB-/	.
4AA/	4C/	.
=17	=17	=17
2BB-/	2D/	0.r
2C/	2.E-/	.
2CC/	.	.
.	4D/	.
2EE-/	1C	.
1DD	.	.
.	2BBni/	.
=18	=18	=18
2CC/	0C	2G/
2.FF/	.	2.A/
4EE-/	.	4G/
2CC/	.	2.c\
2FF/	2AA/	.
.	.	8B-/L
.	.	8A/J
2GG/	2GG/	2B-\
=19	=19	=19
4r	2.G/	2e-\
4GG/	.	.
2GG/	.	4d\
.	4D/	2d\
4FF/	2F/	.
4AA-/	.	4c\
2.GG/	2.G/	4e-\
.	.	4.d\
.	.	8c\
4FF/	2G/	4B-\
2DD/	.	2A/
.	4F/	.
=20	=20	=20
4FF/	4A-/	4r
2EE-/	4.G/	4B-\
.	.	4G/
.	8F/	.
4CC/	4E-/	2c\
2GG/	2D/	.
.	.	4Bni\
2CC/	4r	2c\
.	4E-/	.
4FF/	4C/	1r
4AA/	2F/	.
2GG/	.	.
.	4Eni/	.
=21	=21	=21
0FF	1F	1r
.	2r	1r
.	2.F/	.
2.FF/	.	2r
.	4F/	.
.	[2F/	[2c\
4FF/	.	.
=22	=22	=22
2.FF/	4F/]	4c\]
.	2F/	4c\
.	.	2.c\
2FF/	4F/	.
.	1C	.
4FF/	.	2c\
1CC	.	.
.	.	4c\
.	2r	1G
2r	2C/	.
=23	=23	=23
2CC/	1E-	2r
1EE-	.	2G/
.	2r	1B-
2r	2E-/	.
2EE-/	1G	2r
[2GG/	.	2B-\
=24	=24	=24
2GG/]	2r	1d
2r	2G/	.
2GG/	1B-	2r
1.BB-	.	2d\
.	2r	1f
.	[2B-\	.
=25	=25	=25
2BB-/	2B-\]	2d\
2C/	2G/	2e-\
1FF	2A/	1c
.	1F	.
2BB-/	.	2.d\
[2GG/	[2G/	.
.	.	4c\
=26	=26	=26
4GG/]	4G/]	4B-\
8AA/L	4F/	4A/
8BB-/J	.	.
4C/	4E-/	1G
4D\	4D/	.
2E-\	2C/	.
2C/	2E-/	2.c\
1GG	1D	.
.	.	4Bni\
.	.	4Bni\
.	.	4A/
=27	=27	=27
0.CCl	0.Cl	0.cl
!!LO:LB:i:g=z
=28||	=28||	=28||
*>B	*>B	*>B
*clefF4	*clefGv2	*clefGv2
*k[b-e-]	*k[b-e-]	*k[b-e-]
*M2/1	*M2/1	*M2/1
*met(C|)	*met(C|)	*met(C|)
!!section: Domine Deus rex
!!!OMD: Domine Deus rex
0r	[0C	[0G
=29	=29	=29
0r	0C]	1G]
.	.	1G
=30	=30	=30
0r	1C	1A
.	2D/	1B-
.	[2E-/	.
=31	=31	=31
0r	2E-/]	1c
.	1F	.
.	.	2r
.	2G/	[2C/
=32	=32	=32
0r	1E-	1C]
.	2F/	2D/
.	2G/	2E-/
=33	=33	=33
0r	2A/	2.F/
.	1F	.
.	.	4G/
.	.	4A/
.	.	4B-\
.	2E-/	[2c\
=34	=34	=34
0r	2F/	2c\]
.	2A/	1f
.	1G	.
.	.	2eni\
=35	=35	=35
0r	1F	1f
.	[1G	2e-\
.	.	[2d\
=36	=36	=36
0r	1G]	4d\]
.	.	4c\
.	.	2B-\
.	[1C	4c\
.	.	4B-\
.	.	4A/
.	.	4G/
=37	=37	=37
0r	2C/]	2A/
.	2D/	2B-\
.	2E-/	2c\
.	2F/	2d\
=38	=38	=38
*	*	*M2/1
*	*	*met(3/2)
0r	1G	3G/
.	.	3A/
.	.	3B-\
.	1E-	3c\
.	.	3d\
.	.	3e-\
=39	=39	=39
*	*	*M2/1
*	*	*met(C|)
0r	0D	4f\
.	.	4e-\
.	.	4d\
.	.	4c\
.	.	2.Bni\
.	.	4A/
=40	=40	=40
0r	1r	0c
.	2.C/	.
.	4D/	.
=41	=41	=41
0r	2E-/	1r
.	2.D/	.
.	.	[1F
.	4C/	.
.	[2BB-/	.
=42	=42	=42
0r	4BB-/]	1F]
.	4AA/	.
.	2.FF/	.
.	.	[1c
.	4GG/	.
.	4AA/	.
.	4BB-/	.
=43	=43	=43
0r	2C/	2c\]
.	1D	4B-\
.	.	4A/
.	.	2B-\
.	2E-/	2c\
=44	=44	=44
0r	1F	2d\
.	.	2.c\
.	2r	.
.	.	4B-\
.	2F/	2A/
=45	=45	=45
0r	2E-/	2G/
.	2C/	1c
.	1F	.
.	.	[2F/
=46	=46	=46
0r	2.BB-/	4F/]
.	.	4E-/
.	.	2F/
.	4AA-/	.
.	2BB-/	2G/
.	2C/	[2C/
=47	=47	=47
0r	1FF	2C/]
.	.	2.c\
.	1F	.
.	.	4B-\
.	.	2A/
=48	=48	=48
0r	2.E-/	2G/
.	.	2.B-\
.	4F/	.
.	4G/	.
.	4A/	4A/
.	[2B-\	4G/
.	.	4F/
=49	=49	=49
0r	4B-\]	2E-/
.	4A/	.
.	1F	2A-/
.	.	1G
.	2Eni/	.
=50	=50	=50
0r	1F	2r
.	.	1.F
.	1D	.
=51	=51	=51
0r	2r	1G
.	2.E-/	.
.	.	1C
.	4D/	.
.	2C/	.
=52	=52	=52
0r	1BBni	1D
.	1C	2r
.	.	[2e-\
=53	=53	=53
0r	2r	4e-\]
.	.	4d\
.	2C/	2c\
.	2.D/	2B-\
.	.	[2f\
.	4E-/	.
=54	=54	=54
0r	2.F/	4f\]
.	.	4e-\
.	.	4d\
.	4E-/	4c\
.	2.G/	2e-\
.	.	[2d\
.	4F/	.
=55	=55	=55
0r	2G/	4d\]
.	.	4G/
.	2E-/	1c
.	1D	.
.	.	2Bni\
=56	=56	=56
0r	0Cl	0cl
=57	=57	=57
0C;	0E-;	0G;
=58	=58	=58
0AA-;	0E-;	0c;
=59	=59	=59
0C;	0E-;	0c;
=60	=60	=60
0GG;l	0D;l	0Bn;l
!!LO:LB:i:g=z
=61||	=61||	=61||
*>C	*>C	*>C
*clefF4	*clefF4	*clefGv2
*k[b-e-]	*k[b-e-]	*k[b-e-]
*M3/1	*M3/1	*M3/1
*met(O)	*met(O)	*met(O)
!!section: Domine Deus Agnus Dei
!!!OMD: Domine Deus Agnus Dei
0CC	1.C	0.r
.	4BB-/	.
.	4AA/	.
1DD	1BB-	.
=62	=62	=62
2CC/	2.C/	0.r
2.EE-/	.	.
.	4BB-/	.
.	2.GG/	.
4FF/	.	.
2.GG/	.	.
.	4AA/	.
.	4BB-/	.
4AA/	4C/	.
2BB-/	2D\	.
=63	=63	=63
2C/	2E-\	0.r
2E-\	2C/	.
2D\	2BB-/	.
2.F\	2.D\	.
4E-\	4C/	.
4D\	4BB-/	.
4C/	4AA/	.
=64	=64	=64
1E-	2GG/	0.r
.	1C	.
0D	.	.
.	2BBn/	.
.	2BBni/	.
.	4AA/	.
.	4BBni/	.
=65	=65	=65
2r	1C	0.r
2.C/	.	.
.	2FF/	.
4BB-/	.	.
2.AA/	2.C/	.
4GG/	4BB-/	.
[2FF/	2AA/	.
=66	=66	=66
2FF/]	1GG	0.r
2EEni/	.	.
2FF/	2r	.
1AA-	2FF/	.
.	2C/	.
[2GG/	2BB-/	.
=67	=67	=67
4GG/]	1GG	0.r
4FF/	.	.
2EE-/	.	.
2DD/	2AA/	.
2.D\	2.BB-/	.
4C/	4AA/	.
2BB-/	[2GG/	.
=68	=68	=68
1AA	2GG/]	0.r
.	2FF#i/	.
2r	2GG/	.
4r	2.G\	.
4GG/	.	.
2.C/	.	.
.	4F\	.
.	2G\	.
4BB-/	.	.
=69	=69	=69
2C/	2.En\	0.r
2.AA/	.	.
.	4D\	.
.	2E\	.
4GG/	.	.
2AA/	2.C/	.
2.FF/	.	.
.	4BB-/	.
.	2C/	.
4EE-/	.	.
=70	=70	=70
2FF/	2D\	0.r
2GG/	2BB-/	.
2EE-/	2GG/	.
2CC/	1C	.
1DD	.	.
.	2BBni/	.
=71	=71	=71
2r	1C	0.r
2.CC/	.	.
.	2r	.
4DD/	.	.
2EE-/	2.GG/	.
2CC/	.	.
.	4AA/	.
[2GG/	2BB-/	.
=72	=72	=72
4GG/]	2GG/	0.r
4AA/	.	.
2BB-/	2.D\	.
2GG/	.	.
.	4En\	.
2.D\	2F\	.
.	2D\	.
4Eni\	.	.
2F\	[2BB-/	.
=73	=73	=73
2D\	2BB-/]	0.r
2E-\	2C/	.
2.D\	2.BB-/	.
8C/L	8AA/L	.
8BB-/J	8BB-/J	.
4AA/	2C/	.
4GG/	.	.
[2C/	2E-\	.
=74	=74	=74
2C/]	2.D\	0.r
2BB-/	.	.
.	8C/L	.
.	8BB-/J	.
2C/	4AA/	.
.	4GG/	.
2E-\	1C	.
1D	.	.
.	2BBn/	.
=75	=75	=75
0.Cl	0.Cl	0.r
!!LO:LB:i:g=z
=76||	=76||	=76||
*>D	*>D	*>D
*clefF4	*clefF4	*clefGv2
*k[b-e-]	*k[b-e-]	*k[b-e-]
*M2/1	*M2/1	*M2/1
*met(C)	*met(C)	*met(C)
!!section: Qui tollis
!!!OMD: Qui tollis
1.C	1.E-	0G
4BB-/	4D\	.
4AA/	4C/	.
=77	=77	=77
1GG	1BBn	1d
2CC/	2C/	[1e-
[2C/	[2E-\	.
=78	=78	=78
2C/]	2E-\]	2e-\]
4BB-/	2F\	4d\
4AA/	.	4c\
[1GG	2G\	[1B-
.	4F\	.
.	4E-\	.
=79	=79	=79
1GG]	1D	1B-]
1AA	1C	1c
=80	=80	=80
1BB-	2r	1.d
.	2BB-/	.
1GG	2D\	.
.	2E-\	4c\
.	.	4B-\
=81	=81	=81
2FF/	2F\	2A/
2GG/	1E-	2G/
1CC	.	1c
.	[2C/	.
=82	=82	=82
2.C/	4C/]	2r
.	4D\	.
.	4E-\	2.C/
4D\	4F\	.
4E-\	1G	.
4D\	.	4D/
4C/	.	2E-/
4BB-/	.	.
=83	=83	=83
2AA/	2A\	2F/
2.GG/	2B-\	2.G/
.	1G	.
4FF/	.	4A/
4EE-/	.	2B-\
4DD/	.	.
=84	=84	=84
2CC/	2E-\	2.c\
2FF/	2F\	.
.	.	4d\
2CC/	2G\	2e-\
2FF/	2A\	[2f\
=85	=85	=85
2BBB-/	2.B-\	4f\]
.	.	4e-\
2.BB-/	.	4d\
.	4A\	4c\
.	4G\	2.B-\
4AA/	4F\	.
2GG/	2E-\	.
.	.	4c\
=86	=86	=86
2FF/	2F\	2d\
2EE-/	2G\	1e-
2AA-/	2C/	.
[2BB-/	[2F\	[2d\
=87	=87	=87
2BB-/]	2F\]	2d\]
2C/	2E-\	1c
1GG	1D	.
.	.	2Bni\
=88	=88	=88
1CC	1r	[0c
2r	1C	.
[2E-\	.	.
=89	=89	=89
4E-\]	1.C	1c]
4D\	.	.
2E-\	.	.
2C/	.	[1G
2GG/	2D\	.
=90	=90	=90
2C/	2E-\	2G/]
2FF/	2F\	2A/
1GG	1D	2.B-\
.	.	8A/L
.	.	8B-/J
=91	=91	=91
2AA-/	2C/	2c\
2.GG/	2D\	2.B-\
.	1E-	.
4FF/	.	4A/
2EE-/	.	2G/
=92	=92	=92
2DD/	2F\	2F/
1.CC	1G	2E-/
.	.	[1e-
.	2A-\	.
=93	=93	=93
1EE-	2G\	2e-\]
.	4F\	4d\
.	4E-\	4c\
1BB-	1F	1d
=94	=94	=94
1.EE-	2r	0e-
.	2E-\	.
.	2C/	.
2DD/	2D\	.
=95	=95	=95
2CC/	1E-	1r
1C	.	.
.	2C/	1E-
[2E-\	[2G\	.
=96	=96	=96
2E-\]	2G\]	2C/
2D\	2F\	2D/
1C	2G\	1E-
.	4F\	.
.	4E-\	.
=97	=97	=97
1BB-	1D	2.F/
.	.	4G/
2FF/	2.C/	2A-/
[2C/	.	[2G/
.	4D\	.
=98	=98	=98
1C]	1E-	4G/]
.	.	4F/
.	.	2E-/
2.BB-/	2.F\	1D
4GG/	4G\	.
=99	=99	=99
2FF/	2A-\	1C
2CC/	2.G\	.
2.GG/	.	1r
.	4F\	.
.	2E-\	.
4AA/	.	.
=100	=100	=100
1BB-	1D	1r
2.C/	[1C	[1G
4D\	.	.
=101	=101	=101
2E-\	2C/]	2G/]
2.D\	2.F\	2A/
.	.	2B-\
4C/	4E-\	.
2BB-/	[2D\	[2G/
=102	=102	=102
1AA	2D\]	2G/]
.	2C/	2F#i/
2.GG/	1D	1G
4AA/	.	.
=103	=103	=103
2BB-/	2.GG/	0r
2.GG/	.	.
.	4AA/	.
.	2BB-/	.
4FF/	.	.
2EE-/	2C/	.
=104	=104	=104
2FF/	2D\	0r
2GG/	4E-\	.
.	4F\	.
2CC/	2G\	.
[2GG/	[2E-\	.
=105	=105	=105
4GG/]	4E-\]	0r
4FF/	4D\	.
2EE-/	1C	.
1DD	.	.
.	2BBni/	.
=106	=106	=106
2r	1C	1.e-
2CC/	.	.
1C	2r	.
.	2C/	4d\
.	.	4e-\
=107	=107	=107
2.BB-/	1D	4f\
.	.	4e-\
.	.	4d\
4C/	.	4c\
2D\	1GG	2.B-\
[2GG/	.	.
.	.	4c\
=108	=108	=108
4GG/]	2.G\	2d\
4AA/	.	.
2BB-/	.	2.G/
.	4A\	.
[1EE-	2B-\	.
.	.	4A/
.	2E-\	2B-\
=109	=109	=109
0EE-]	1.G	2E-/
.	.	1B-
.	[2G\	[2e-\
=110	=110	=110
1EE-	4G\]	4e-\]
.	4F\	4d\
.	2E-\	2c\
1GG	1D	2.Bni\
.	.	4A/
=111	=111	=111
0CCl	0Cl	0cl
!!LO:LB:i:g=z
=112||	=112||	=112||
*>E	*>E	*>E
*clefF4	*clefF4	*clefGv2
*k[b-e-]	*k[b-e-]	*k[b-e-]
*M2/1	*M2/1	*M2/1
*met(C)	*met(C)	*met(C)
!!section: Qui sedes
!!!OMD: Qui sedes
0CC	[0C	0c
=113	=113	=113
2.FF/	0C]	1.c
4GG/	.	.
2AA/	.	.
2BB-/	.	4B-\
.	.	4A/
=114	=114	=114
1C	1E-	1G
2r	1F	1A
2FF/	.	.
=115	=115	=115
2EE-/	1G	[0B-
2.GG/	.	.
.	2D\	.
4FF/	.	.
[2EE-/	[2G\	.
=116	=116	=116
4EE-/]	4G\]	0B-]
4DD/	4F\	.
4EE-/	2E-\	.
4FF/	.	.
1GG	1D	.
=117	=117	=117
0CC	1r	[0c
.	[1C	.
=118	=118	=118
0r	2C/]	0c]
.	2.E-\	.
.	4D\	.
.	2C/	.
=119	=119	=119
[0GG	1.BB-	1r
.	.	[1B-
.	2C/	.
=120	=120	=120
0GG]	2D\	2B-\]
.	4E-\	2A/
.	4F\	.
.	1G	2G/
.	.	4F/
.	.	4E-/
=121	=121	=121
*	*	*M2/1
*	*	*met(3/2)
[0BB-	1F	3%2.D
.	4F\	3E-/
.	4E-\	.
.	.	3%2F
.	4D\	.
.	4C/	.
=122	=122	=122
0BB-]	1D	3%2.G
.	1GG	3A/
.	.	3%2B-
=123	=123	=123
[0AA	0FF	3%2.c
.	.	3B-\
.	.	3A/
.	.	3G/
=124	=124	=124
0AA]	1.C	3%2A
.	.	3%2.F#i
.	4BB-/	.
.	.	6E-/
.	4C/	.
.	.	6F#i/
=125	=125	=125
*	*	*M2/1
*	*	*met(C|)
[0GG	0D	1.G
.	.	[2B-\
=126	=126	=126
0GG]	0r	4B-\]
.	.	4A/
.	.	2B-\
.	.	2G/
.	.	4F/
.	.	4E-/
=127	=127	=127
1r	[0BB-	2.D/
.	.	4C/
[1GG	.	2D/
.	.	2E-/
=128	=128	=128
2GG/]	0BB-]	1.D
4FF/	.	.
4EE-/	.	.
1DD	.	.
.	.	4C/
.	.	4D/
=129	=129	=129
1CC	[0C	1E-
2r	.	1C
[2FF/	.	.
=130	=130	=130
2FF/]	0C]	0r
2.AA-/	.	.
4GG/	.	.
2FF/	.	.
=131	=131	=131
1.GG	1r	[0Bni
.	[1D	.
[2GG/	.	.
=132	=132	=132
4GG/]	2D\]	0B]
4FF/	.	.
2EE-/	2E-\	.
2FF/	1D	.
2GG/	.	.
=133	=133	=133
1CC	[0C	[0c
2r	.	.
[2FF/	.	.
=134	=134	=134
2FF/]	1C]	0c]
2EE-/	.	.
2FF/	1AA	.
4GG/	.	.
4AA/	.	.
=135	=135	=135
1.BB-	2GG/	[0d
.	1D	.
[2D\	[2F\	.
=136	=136	=136
4D\]	4F\]	0d]
4C/	4E-\	.
4BBni/	4D\	.
4AA/	4C/	.
1BBni	1D	.
=137	=137	=137
0C	1C	[0e-
.	2r	.
.	[2C/	.
=138	=138	=138
0r	2C/]	0e-]
.	2.AA/	.
.	4BB-/	.
.	2C/	.
=139	=139	=139
[0D	1GG	1.d
.	[1BB-	.
.	.	[2f\
=140	=140	=140
0D]	2BB-/]	4f\]
.	.	4e-\
.	2BB-/	4d\
.	.	4c\
.	1GG	2.Bn\
.	.	4A/
=141	=141	=141
0Cl	0Gl	0cl
!!LO:LB:i:g=z
=142||	=142||	=142||
*>F	*>F	*>F
*clefF4	*clefF4	*clefGv2
*k[b-e-]	*k[b-e-]	*k[b-e-]
*M3/1	*M3/1	*M3/1
*met(O)	*met(O)	*met(O)
!!section: Quoniam tu solus
!!!OMD: Quoniam tu solus
0C	0G	0e-
2GG/	2G\	1d
2BB-/	[2F\	.
=143	=143	=143
2.FF/	4F\]	0.c
.	4E-\	.
.	2.C/	.
4GG/	.	.
4AA/	.	.
4BB-/	4D\	.
2C/	2E-\	.
1FF	1F	.
=144	=144	=144
*M3/1	*M3/1	*M3/1
*met(O|)	*met(O|)	*met(O|)
1.BB-	1F	1.d
.	2BB-/	.
2AA/	2C/	2c\
1GG	2.D\	2B-\
.	.	4A/
.	4E-\	4G/
=145	=145	=145
2FF/	1F	2A/
1BB-	.	1D
.	2BB-/	.
2C/	2C/	2E-/
2BB-/	1D	2F/
[2GG/	.	4G/
.	.	4A/
=146	=146	=146
4GG/]	1GG	2B-\
4FF/	.	.
2EE-/	.	1G
0DD	0AA	.
.	.	2F#i/
.	.	2F#i/
.	.	4Eni/
.	.	4F#/
=147	=147	=147
2r	0.GG	0G
1D	.	.
2.BB-/	.	.
.	.	1r
4C/	.	.
2D\	.	.
=148	=148	=148
*M3/1	*M3/1	*M3/1
*met(O)	*met(O)	*met(O)
0E-	0C	1.G
.	.	1c
1D	1GG	.
.	.	2B-\
=149	=149	=149
0.C	2r	1.c
.	1G	.
.	2.E-\	2.c\
.	4F\	4A/
.	4E-\	4G/
.	8D/L	8F/L
.	8C/J	8Eni/J
=150	=150	=150
*M3/1	*M3/1	*M3/1
*met(O|)	*met(O|)	*met(O|)
1.D	1.BB-	1F
.	.	2G/
2C/	2C/	2A/
2BB-/	1D	1B-
4AA/	.	.
4GG/	.	.
=151	=151	=151
2AA/	2C/	2c\
1DD	1F	2.d\
.	.	4c\
2EE-/	2G\	2B-\
2FF/	4F\	2A/
.	4E-\	.
4GG/	4D\	2G/
4AA/	4C/	.
=152	=152	=152
2BB-/	1D	2F/
1GG	.	2G/
.	2BB-/	2r
2FF#i/	2C/	2.A/
2FF#i/	1AA	.
.	.	4B-\
4EEni/	.	2c\
4FF#i/	.	.
=153	=153	=153
[0.GG	2r	2.B-\
.	2.GG/	.
.	.	4c\
.	.	1.d
.	4AA/	.
.	2.BB-/	.
.	4C/	.
.	[2D\	2B-\
=154	=154	=154
0.GG]	2D\]	0B-
.	2E-\	.
.	2D\	.
.	4E-\	.
.	4F\	.
.	1G	1r
=155	=155	=155
*M3/1	*M3/1	*M3/1
*met(O)	*met(O)	*met(O)
0FF	0A-	1.c
.	.	2.f\
1C	1G	.
.	.	8eni\L
.	.	8d\J
.	.	2eni\
=156	=156	=156
0FF	0.F	1f
.	.	2c\
.	.	2.f\
2.BB-/	.	.
.	.	4e-\
.	.	4d\
4AA/	.	4c\
=157	=157	=157
*M3/1	*M3/1	*M3/1
*met(O|)	*met(O|)	*met(O|)
1GG	1.G	0B-
2EE-/	.	.
2DD/	2F\	.
1CC	2E-\	1c
.	4D\	.
.	4C/	.
=158	=158	=158
1GG	2D\	1B-
.	1GG	.
2EE-/	.	2G/
2FF/	2AA/	4F/
.	.	4E-/
1GG	2BB-/	2D/
.	4C/	4E-/
.	4D\	4F/
=159	=159	=159
1CC	2E-\	1G
.	1C	.
2r	.	2E-/
2GG/	2BBni/	4D/
.	.	4C/
1GG	2BBni/	1D
.	4AA/	.
.	4BB/	.
=160	=160	=160
2AA/	2.C/	0.C
1FF	.	.
.	4BB-/	.
.	2AA/	.
4EE-/	4GG/	.
4DD/	4FF/	.
2EE-/	2GG/	.
2FF/	2AA/	.
=161	=161	=161
0.CC;	0.GG;	0.C; 0.E-;
=162	=162	=162
0.r	0.r	0.r
=163	=163	=163
0.GG;	0.BB-;	0.G;
=164	=164	=164
0.C;	0.E-;	0G;
.	.	1A
=165	=165	=165
0.GG;	0.D;	0.Bni;
=166	=166	=166
0.CC;	0.C;	0.c;
!!LO:LB:i:g=z
=167||	=167||	=167||
*>G	*>G	*>G
*clefF4	*clefF4	*clefGv2
*k[b-e-]	*k[b-e-]	*k[b-e-]
*M3/1	*M3/1	*M3/1
*met(O)	*met(O)	*met(O)
!!section: Cum sancto
!!!OMD: Cum sancto
0CC	0C	1.G
.	.	4F/
.	.	4E-/
1GG	1BB-	2D/
.	.	[2G/
=168	=168	=168
1CC	1C	2G/]
.	.	1C
2.FF/	1AA	.
.	.	1F
4GG/	.	.
2AA-/	1FF	.
[2FF/	.	[2A/
=169	=169	=169
4FF/]	1F	4A/]
4EE-/	.	4G/
2DD/	.	2F/
1CC	1E-	2G/
.	.	2.c\
1FF	2C/	.
.	.	4B-\
.	[2D\	4A/
.	.	4G/
=170	=170	=170
2r	2D\]	2B-\
1.FF	2.C/	2.A/
.	4BB-/	4G/
.	2AA/	1F
1CC	1GG	.
.	.	2Eni/
=171	=171	=171
2.DD/	1FF	0F
4EE-/	.	.
2FF/	2r	.
2DD/	2FF/	.
2CC/	2GG/	2r
2FF/	2AA-/	2c\
=172	=172	=172
2r	2BB-/	2d\
2CC/	2C/	2e-\
2DD/	1r	2f\
2EE-/	.	4e-\
.	.	4c\
2FF/	2r	2d\
2CC/	[2G\	2e-\
=173	=173	=173
2.GG/	4G\]	2B-\
.	4D\	.
.	2G\	2.d\
4AA/	.	.
2BB-/	2F\	.
.	.	4c\
2C/	2E-\	1c
1GG	1D	.
.	.	2Bni\
=174	=174	=174
2CC/	1C	0c
2.FF/	.	.
.	1r	.
4EE-/	.	.
2CC/	.	.
2FF/	2C/	2r
4r	2E-\	2G/
4CC/	.	.
=175	=175	=175
4GG/	2D\	2B-\
4BB-/	.	.
2FF/	2C/	2A/
2EE-/	2.E-\	2G/
2.GG/	.	2.B-\
.	4F\	.
.	2.G\	.
4AA/	.	4c\
[2BB-/	.	[2d\
.	4F\	.
=176	=176	=176
4BB-/]	2.D\	4d\]
4AA/	.	4c\
1.FF	.	2.A/
.	4E-\	.
.	2.F\	.
.	.	4B-\
.	.	2.c\
.	4E-\	.
[1FF	[1C	.
.	.	4B-\
.	.	4A/
.	.	4G/
=177	=177	=177
2FF/]	2C/]	2A/
2.GG/	2BB-/	2.B-\
.	1GG	.
4FF/	.	4A/
2EE-/	.	1G
1DD	1AA	.
.	.	2F#i/
=178	=178	=178
2EE-/	2r	1G
4r	2GG/	.
4CC/	.	.
2.FF/	2.AA/	2r
.	.	2.C/
4GG/	4BB-/	.
4AA-/	2.C/	.
4BB-/	.	4D/
2GG/	.	2E-/
.	4BB-/	.
=179	=179	=179
2FF/	4C/	2r
.	4AA/	.
2GG/	2BB-/	2D/
4CC/	2.C/	2C/
2C/	.	.
.	.	2.G/
4BB-/	4D\	.
4C/	4E-\	.
4FF/	4F\	4A/
2GG/	2D\	2B-\
=180	=180	=180
4r	2C/	2c\
4CC/	.	.
2FF/	4r	2A/
.	2C/	.
1C	.	2.G/
.	4D\	.
.	4E-\	.
.	4F\	4A/
2GG/	2.G\	4B-\
.	.	4c\
[2BB-/	.	[2d\
.	4A\	.
=181	=181	=181
4BB-/]	4B-\	4d\]
4C/	4A\	4e-\
2D\	2F\	4f\
.	.	4e-\
2GG/	2G\	4d\
.	.	4c\
2C/	2E-\	1c
1GG	1D	.
.	.	2Bni\
=182	=182	=182
0.CCl	0.Cl	0.cl
==	==	==
*-	*-	*-
!!!RDF**kern: l=long note in original notation
!!!RDF**kern: i=editorial accidental
!!!RDF**kern: V=start of tuplet marker
!!!RDF**kern: Z=end of tuplet marker
!!!ENC:	Chris Gage/Jesse Rodin 12-17-2014
!!!END:	2015/01/18/
!!!EED:	Jesse Rodin
!!!EEV:	2015/03/09/
!!!ONB:	Translated from MusicXML and edited on 2015/03/09/ by Craig Sapp
!!muse2ps: T^@{OPR}^u^@{ONM}{. }@{OTL}^C^@{COM}^i2I150v95,95,150Q16
